packages/foundations/assets/icons/functional/images/audio & video/volume_up.svg

<svg xmlns="http://www.w3.org/2000/svg" width="32" height="32" fill="none"><path fill="#1A1C1F" fill-rule="evenodd" d="M22.8 5.099c-.39.213-.56.487-.56.901 0 .289.099.543.273.703.07.065.348.257.618.427a10.7 10.7 0 0 1 3.419 3.534c.625 1.058 1.111 2.422 1.323 3.716.132.802.132 2.438 0 3.24a10.85 10.85 0 0 1-1.958 4.676c-.712.961-1.94 2.081-2.924 2.665-.447.266-.679.513-.728.775-.129.687.306 1.251.966 1.251.231 0 .339-.041.728-.273 1.221-.728 2.675-2.044 3.543-3.207 1.289-1.727 2.09-3.691 2.399-5.88.12-.852.12-2.392-.001-3.254-.235-1.683-.815-3.368-1.63-4.736-1.011-1.697-2.616-3.322-4.263-4.317-.378-.228-.506-.278-.75-.292-.2-.011-.347.012-.455.071m-8.273 1.03c-.092.056-1.45 1.169-3.019 2.475l-2.853 2.373L6.554 11c-1.814.019-2.141.035-2.394.116-.709.226-1.408.774-1.746 1.368a4 4 0 0 0-.289.689c-.124.396-.125.428-.125 2.934 0 2.511.001 2.536.123 2.874.356.986 1.222 1.728 2.279 1.952.288.061.806.079 2.304.079l1.933.001 2.85 2.37c1.568 1.303 2.911 2.41 2.986 2.459.483.316 1.182.109 1.423-.422.096-.212.1-.55.101-9.408.001-9.881.014-9.386-.254-9.682-.269-.298-.892-.4-1.218-.201m5.476 3.108c-.447.233-.657.652-.567 1.131.051.275.242.471.849.871.597.393 1.3 1.037 1.67 1.53.33.439.732 1.293.88 1.871.105.406.123.615.123 1.36s-.018.954-.123 1.36c-.148.578-.55 1.432-.88 1.871-.371.493-1.102 1.164-1.676 1.538-.566.369-.722.512-.809.741-.078.206-.071.539.015.746.158.377.682.675 1.064.603.428-.08 1.7-1.001 2.401-1.738.988-1.038 1.607-2.219 1.912-3.644.166-.777.166-2.177 0-2.954-.321-1.5-.953-2.667-2.034-3.753-.595-.598-1.033-.946-1.699-1.348-.52-.314-.793-.359-1.126-.185m-6.043 10.18-.013 3.416-2.189-1.83c-1.204-1.006-2.26-1.866-2.347-1.909-.13-.066-.562-.085-2.451-.107-2.581-.03-2.51-.019-2.787-.438l-.146-.221v-4.656l.15-.227c.283-.428.29-.429 2.75-.43 1.483-.001 2.219-.021 2.362-.064.147-.044.857-.605 2.432-1.921l2.226-1.86.013 3.415c.008 1.878.008 4.952 0 6.832"/></svg>

<svg width="32" height="32" viewBox="0 0 32 32" fill="none" xmlns="http://www.w3.org/2000/svg"><path d="M22.800 5.099 C 22.410 5.312,22.240 5.586,22.240 6.000 C 22.240 6.289,22.339 6.543,22.513 6.703 C 22.583 6.768,22.861 6.960,23.131 7.130 C 24.498 7.994,25.717 9.253,26.550 10.664 C 27.175 11.722,27.661 13.086,27.873 14.380 C 28.005 15.182,28.005 16.818,27.873 17.620 C 27.592 19.328,26.914 20.947,25.915 22.296 C 25.203 23.257,23.975 24.377,22.991 24.961 C 22.544 25.227,22.312 25.474,22.263 25.736 C 22.134 26.423,22.569 26.987,23.229 26.987 C 23.460 26.987,23.568 26.946,23.957 26.714 C 25.178 25.986,26.632 24.670,27.500 23.507 C 28.789 21.780,29.590 19.816,29.899 17.627 C 30.019 16.775,30.019 15.235,29.898 14.373 C 29.663 12.690,29.083 11.005,28.268 9.637 C 27.257 7.940,25.652 6.315,24.005 5.320 C 23.627 5.092,23.499 5.042,23.255 5.028 C 23.055 5.017,22.908 5.040,22.800 5.099 M14.527 6.129 C 14.435 6.185,13.077 7.298,11.508 8.604 L 8.655 10.977 6.554 11.000 C 4.740 11.019,4.413 11.035,4.160 11.116 C 3.451 11.342,2.752 11.890,2.414 12.484 C 2.323 12.643,2.193 12.953,2.125 13.173 C 2.001 13.569,2.000 13.601,2.000 16.107 C 2.000 18.618,2.001 18.643,2.123 18.981 C 2.479 19.967,3.345 20.709,4.402 20.933 C 4.690 20.994,5.208 21.012,6.706 21.012 L 8.639 21.013 11.489 23.383 C 13.057 24.686,14.400 25.793,14.475 25.842 C 14.958 26.158,15.657 25.951,15.898 25.420 C 15.994 25.208,15.998 24.870,15.999 16.012 C 16.000 6.131,16.013 6.626,15.745 6.330 C 15.476 6.032,14.853 5.930,14.527 6.129 M20.003 9.237 C 19.556 9.470,19.346 9.889,19.436 10.368 C 19.487 10.643,19.678 10.839,20.285 11.239 C 20.882 11.632,21.585 12.276,21.955 12.769 C 22.285 13.208,22.687 14.062,22.835 14.640 C 22.940 15.046,22.958 15.255,22.958 16.000 C 22.958 16.745,22.940 16.954,22.835 17.360 C 22.687 17.938,22.285 18.792,21.955 19.231 C 21.584 19.724,20.853 20.395,20.279 20.769 C 19.713 21.138,19.557 21.281,19.470 21.510 C 19.392 21.716,19.399 22.049,19.485 22.256 C 19.643 22.633,20.167 22.931,20.549 22.859 C 20.977 22.779,22.249 21.858,22.950 21.121 C 23.938 20.083,24.557 18.902,24.862 17.477 C 25.028 16.700,25.028 15.300,24.862 14.523 C 24.541 13.023,23.909 11.856,22.828 10.770 C 22.233 10.172,21.795 9.824,21.129 9.422 C 20.609 9.108,20.336 9.063,20.003 9.237 M13.960 19.417 L 13.947 22.833 11.758 21.003 C 10.554 19.997,9.498 19.137,9.411 19.094 C 9.281 19.028,8.849 19.009,6.960 18.987 C 4.379 18.957,4.450 18.968,4.173 18.549 L 4.027 18.328 4.027 16.000 L 4.027 13.672 4.177 13.445 C 4.460 13.017,4.467 13.016,6.927 13.015 C 8.410 13.014,9.146 12.994,9.289 12.951 C 9.436 12.907,10.146 12.346,11.721 11.030 L 13.947 9.170 13.960 12.585 C 13.968 14.463,13.968 17.537,13.960 19.417 " fill="#1A1C1F" stroke="none" fill-rule="evenodd"></path></svg>
